src/img/notebook.svg

<svg width="100" height="100" viewBox="0 0 100 100" fill="none" xmlns="http://www.w3.org/2000/svg">
<path d="M13.7097 86.2903H16.6129V89.1936H13.7097V86.2903Z" fill="#616F8A"/>
<path d="M19.5162 86.2903H22.4194V89.1936H19.5162V86.2903Z" fill="#616F8A"/>
<path d="M25.3224 86.2903H28.2256V89.1936H25.3224V86.2903Z" fill="#616F8A"/>
<path d="M74.6776 86.2903H86.2905V89.1936H74.6776V86.2903Z" fill="#616F8A"/>
<path d="M92.0968 80.4839V32.5806C92.0968 28.5788 88.8406 25.3226 84.8387 25.3226H80.4839C80.4839 14.1158 71.3681 5 60.1613 5C48.9545 5 39.8387 14.1158 39.8387 25.3226H15.1613C11.1594 25.3226 7.90323 28.5788 7.90323 32.5806V80.4839H5V87.7419C5 91.7438 8.25621 95 12.2581 95H87.7419C91.7438 95 95 91.7438 95 87.7419V80.4839H92.0968ZM84.8387 28.2258C87.2394 28.2258 89.1936 30.18 89.1936 32.5806V80.4839H86.2903V34.0323C86.2903 32.4311 84.9883 31.129 83.3871 31.129H79.6276C79.9076 30.1885 80.1096 29.2174 80.2514 28.2258H84.8387ZM43.5854 19.9882L58.9925 26.4085L64.2681 42.2323C62.9483 42.5534 61.5782 42.7419 60.1613 42.7419C50.5557 42.7419 42.7419 34.9282 42.7419 25.3226C42.7419 23.4613 43.0425 21.6702 43.5854 19.9882ZM67.026 41.3265L61.822 25.7145L73.4491 14.0868C76.0213 17.1225 77.5807 21.0415 77.5807 25.3226C77.5807 32.4906 73.2258 38.6572 67.026 41.3265ZM60.1613 7.90323C64.4424 7.90323 68.3613 9.46258 71.3985 12.0334L59.8232 23.608L44.7103 17.3125C47.6149 11.73 53.4447 7.90323 60.1613 7.90323ZM10.8065 32.5806C10.8065 30.18 12.7606 28.2258 15.1613 28.2258H40.0712C40.213 29.2174 40.4135 30.1885 40.6949 31.129H16.6129C15.0117 31.129 13.7097 32.4311 13.7097 34.0323V80.4839H10.8065V32.5806ZM92.0968 87.7419C92.0968 90.1426 90.1426 92.0968 87.7419 92.0968H12.2581C9.85737 92.0968 7.90323 90.1426 7.90323 87.7419V83.3871H37.8094C39.8968 85.264 42.5676 86.2903 45.3971 86.2903H54.6043C57.4338 86.2903 60.1046 85.264 62.192 83.3871H80.4839V80.4839H61.0118L60.5866 80.9091C58.9882 82.5075 56.8647 83.3871 54.6029 83.3871H45.3957C43.1353 83.3871 41.0103 82.5075 39.412 80.9091L38.9882 80.4839H16.6129V34.0323H41.8276C45.098 40.887 52.0746 45.6452 60.1613 45.6452C68.2479 45.6452 75.2246 40.887 78.495 34.0323H83.3871V83.3871H92.0968V87.7419Z" fill="#616F8A"/>
<path d="M76.1295 60.9675C75.2385 60.9675 74.4093 61.239 73.7182 61.7004L68.6538 57.9034C68.7828 57.4923 68.8714 57.0642 68.8714 56.6127C68.8714 54.212 66.9173 52.2578 64.5166 52.2578C62.1159 52.2578 60.1618 54.212 60.1618 56.6127C60.1618 57.1124 60.2631 57.5851 60.4183 58.0324L52.2885 64.537C51.6222 64.1216 50.8425 63.8707 50.0005 63.8707C49.0238 63.8707 48.1307 64.206 47.4035 64.7503L41.1441 60.5769C41.2313 60.236 41.2908 59.8845 41.2908 59.5159C41.2908 57.1152 39.3366 55.161 36.936 55.161C34.5353 55.161 32.5811 57.1152 32.5811 59.5159C32.5811 59.8845 32.6407 60.236 32.7278 60.5769L26.4685 64.7503C25.7412 64.2046 24.8482 63.8707 23.8714 63.8707C21.4708 63.8707 19.5166 65.8249 19.5166 68.2256C19.5166 70.6263 21.4708 72.5804 23.8714 72.5804C26.2721 72.5804 28.2263 70.6263 28.2263 68.2256C28.2263 67.857 28.1667 67.5054 28.0796 67.1645L34.3389 62.9911C35.0662 63.5369 35.9592 63.8707 36.936 63.8707C37.9127 63.8707 38.8058 63.5369 39.533 62.9911L45.7924 67.1645C45.7052 67.5054 45.6456 67.8584 45.6456 68.2256C45.6456 70.6263 47.5998 72.5804 50.0005 72.5804C52.4012 72.5804 54.3553 70.6263 54.3553 68.2256C54.3553 67.7259 54.254 67.2531 54.0987 66.8058L62.2286 60.3012C62.8949 60.7166 63.6746 60.9675 64.5166 60.9675C65.4076 60.9675 66.2369 60.696 66.9279 60.2346L71.9923 64.0316C71.8633 64.4427 71.7747 64.8708 71.7747 65.3223C71.7747 67.723 73.7288 69.6772 76.1295 69.6772C78.5302 69.6772 80.4843 67.723 80.4843 65.3223C80.4843 62.9216 78.5302 60.9675 76.1295 60.9675ZM23.8714 69.6772C23.0719 69.6772 22.4198 69.0251 22.4198 68.2256C22.4198 67.426 23.0719 66.7739 23.8714 66.7739C24.671 66.7739 25.3231 67.426 25.3231 68.2256C25.3231 69.0251 24.671 69.6772 23.8714 69.6772ZM36.936 60.9675C36.1364 60.9675 35.4843 60.3154 35.4843 59.5159C35.4843 58.7164 36.1364 58.0643 36.936 58.0643C37.7355 58.0643 38.3876 58.7164 38.3876 59.5159C38.3876 60.3154 37.7355 60.9675 36.936 60.9675ZM50.0005 69.6772C49.201 69.6772 48.5489 69.0251 48.5489 68.2256C48.5489 67.426 49.201 66.7739 50.0005 66.7739C50.8 66.7739 51.4521 67.426 51.4521 68.2256C51.4521 69.0251 50.8 69.6772 50.0005 69.6772ZM64.5166 58.0643C63.7171 58.0643 63.065 57.4122 63.065 56.6127C63.065 55.8131 63.7171 55.161 64.5166 55.161C65.3161 55.161 65.9682 55.8131 65.9682 56.6127C65.9682 57.4122 65.3161 58.0643 64.5166 58.0643ZM76.1295 66.7739C75.33 66.7739 74.6779 66.1219 74.6779 65.3223C74.6779 64.5228 75.33 63.8707 76.1295 63.8707C76.929 63.8707 77.5811 64.5228 77.5811 65.3223C77.5811 66.1219 76.929 66.7739 76.1295 66.7739Z" fill="#616F8A"/>
</svg>

<svg width="100" height="100" fill="none" xmlns="http://www.w3.org/2000/svg"><path d="M13.71 86.29h2.903v2.904H13.71V86.29zm5.806 0h2.903v2.904h-2.903V86.29zm5.806 0h2.904v2.904h-2.904V86.29zm49.356 0H86.29v2.904H74.678V86.29z" fill="#616F8A"/><path d="M92.097 80.484V32.58c0-4.002-3.256-7.258-7.258-7.258h-4.355C80.484 14.116 71.368 5 60.16 5 48.955 5 39.84 14.116 39.84 25.323H15.16c-4.002 0-7.258 3.256-7.258 7.258v47.903H5v7.258C5 91.744 8.256 95 12.258 95h75.484C91.744 95 95 91.744 95 87.742v-7.258h-2.903zm-7.258-52.258a4.36 4.36 0 0 1 4.355 4.355v47.903H86.29V34.032a2.906 2.906 0 0 0-2.903-2.903h-3.76c.28-.94.483-1.912.624-2.903h4.588zm-41.254-8.238l15.407 6.42 5.276 15.824c-1.32.321-2.69.51-4.107.51-9.605 0-17.42-7.814-17.42-17.42 0-1.86.301-3.652.844-5.334zm23.441 21.339l-5.204-15.612 11.627-11.628a17.326 17.326 0 0 1 4.132 11.236c0 7.168-4.355 13.334-10.555 16.004zM60.161 7.903c4.281 0 8.2 1.56 11.237 4.13L59.823 23.608 44.71 17.312c2.905-5.582 8.735-9.409 15.451-9.409zM10.806 32.581a4.36 4.36 0 0 1 4.355-4.355h24.91c.142.991.343 1.963.624 2.903H16.613a2.906 2.906 0 0 0-2.903 2.903v46.452h-2.904V32.58zm81.29 55.16a4.36 4.36 0 0 1-4.354 4.356H12.258a4.36 4.36 0 0 1-4.355-4.355v-4.355H37.81a11.28 11.28 0 0 0 7.588 2.903h9.207c2.83 0 5.5-1.026 7.588-2.903h18.292v-2.903H61.012l-.425.425a8.404 8.404 0 0 1-5.984 2.478h-9.207c-2.26 0-4.386-.88-5.984-2.478l-.424-.425H16.613V34.032h25.215c3.27 6.855 10.247 11.613 18.333 11.613 8.087 0 15.064-4.758 18.334-11.613h4.892v49.355h8.71v4.355z" fill="#616F8A"/><path d="M76.13 60.968a4.33 4.33 0 0 0-2.412.732l-5.064-3.797c.129-.41.217-.839.217-1.29a4.36 4.36 0 0 0-4.354-4.355 4.36 4.36 0 0 0-4.355 4.355c0 .5.101.972.256 1.42l-8.13 6.504a4.309 4.309 0 0 0-2.287-.666c-.977 0-1.87.335-2.597.88l-6.26-4.174c.087-.341.147-.692.147-1.061a4.36 4.36 0 0 0-4.355-4.355 4.36 4.36 0 0 0-4.355 4.355c0 .369.06.72.147 1.06l-6.26 4.174a4.31 4.31 0 0 0-2.597-.88 4.36 4.36 0 0 0-4.354 4.356 4.36 4.36 0 0 0 4.354 4.354 4.36 4.36 0 0 0 4.355-4.354c0-.369-.06-.72-.146-1.061l6.259-4.174c.727.546 1.62.88 2.597.88.977 0 1.87-.334 2.597-.88l6.26 4.174c-.088.34-.147.693-.147 1.06A4.36 4.36 0 0 0 50 72.58a4.36 4.36 0 0 0 4.354-4.354c0-.5-.101-.973-.256-1.42l8.13-6.505a4.309 4.309 0 0 0 2.288.666 4.33 4.33 0 0 0 2.41-.732l5.065 3.797c-.129.41-.217.839-.217 1.29a4.36 4.36 0 0 0 4.354 4.355 4.36 4.36 0 0 0 4.355-4.355 4.36 4.36 0 0 0-4.355-4.355zm-52.259 8.71c-.8 0-1.451-.653-1.451-1.452 0-.8.652-1.452 1.451-1.452.8 0 1.452.652 1.452 1.452 0 .8-.652 1.451-1.452 1.451zm13.065-8.71c-.8 0-1.452-.653-1.452-1.452 0-.8.652-1.452 1.452-1.452.8 0 1.452.652 1.452 1.452 0 .8-.652 1.452-1.452 1.452zm13.065 8.71c-.8 0-1.452-.653-1.452-1.452 0-.8.652-1.452 1.452-1.452.799 0 1.451.652 1.451 1.452 0 .8-.652 1.451-1.451 1.451zm14.516-11.614c-.8 0-1.452-.652-1.452-1.451 0-.8.652-1.452 1.452-1.452.8 0 1.451.652 1.451 1.452 0 .8-.652 1.451-1.451 1.451zm11.612 8.71c-.799 0-1.451-.652-1.451-1.452 0-.8.652-1.451 1.451-1.451.8 0 1.452.652 1.452 1.451 0 .8-.652 1.452-1.452 1.452z" fill="#616F8A"/></svg>
